projects_img/lijinen/tulips.svg

<svg enable-background="new 0 0 183.3 116.8" viewBox="0 0 183.3 116.8" xmlns="http://www.w3.org/2000/svg" xmlns:xlink="http://www.w3.org/1999/xlink"><clipPath id="a"><path d="m-2.1 8.7h185.4v92.5h-185.4z"/></clipPath><g fill="none" stroke="#ae3628" stroke-miterlimit="10" stroke-width="4"><path clip-path="url(#a)" d="m21.9 29.2-19.3-15.4v30.8c0 2.2 1.3 16.9 19.9 16.9 18.5 0 18.5-14.3 18.5-17.2v-30.5l-38.7 30.3"/><path clip-path="url(#a)" d="m90.8 29.2-19.4-15.4v30.8c0 2.2 1.3 16.9 19.9 16.9 18.5 0 18.5-14.3 18.5-17.2v-30.5l-38.6 30.3"/><path clip-path="url(#a)" d="m159.5 29.2-19.3-15.4v30.8c0 2.2 1.3 16.9 19.9 16.9 18.5 0 18.5-14.3 18.5-17.2v-30.5l-38.7 30.3"/><path clip-path="url(#a)" d="m21.8 99.8v-38.6"/><path clip-path="url(#a)" d="m90.6 99.8v-38.6"/><path clip-path="url(#a)" d="m159.4 99.8v-38.6"/><path clip-path="url(#a)" d="m0 73.8c20 3.7 20.8 25.3 20.8 25.3s-22.1 2.3-20.8-25.3z"/><path clip-path="url(#a)" d="m68.9 73.8c20 3.7 20.8 25.3 20.8 25.3s-22.2 2.3-20.8-25.3z"/><path clip-path="url(#a)" d="m137.6 73.8c20 3.7 20.8 25.3 20.8 25.3s-22.1 2.3-20.8-25.3z"/><path clip-path="url(#a)" d="m43.7 73.8c-20 3.7-20.8 25.3-20.8 25.3s22.1 2.3 20.8-25.3z"/><path clip-path="url(#a)" d="m112.6 73.8c-20 3.7-20.8 25.3-20.8 25.3s22.1 2.3 20.8-25.3z"/><path clip-path="url(#a)" d="m181.3 73.8c-20 3.7-20.8 25.3-20.8 25.3s22.1 2.3 20.8-25.3z"/><path clip-path="url(#a)" d="m11.7 21.1 10.4-9.7 9.9 9.1"/><path clip-path="url(#a)" d="m80.6 21.1 10.4-9.7 9.9 9.1"/><path clip-path="url(#a)" d="m149.3 21.1 10.4-9.7 9.9 9.1"/></g></svg>

<?xml version="1.0" encoding="utf-8"?>
<!-- Generator: Adobe Illustrator 19.0.0, SVG Export Plug-In . SVG Version: 6.00 Build 0)  -->
<svg version="1.1" id="Layer_1" xmlns="http://www.w3.org/2000/svg" xmlns:xlink="http://www.w3.org/1999/xlink" x="0px" y="0px"
	 viewBox="0 0 183.3 116.8" enable-background="new 0 0 183.3 116.8" xml:space="preserve">
<g>
	<defs>
		<rect id="SVGID_1_" x="-2.1" y="8.7" width="185.4" height="92.5"/>
	</defs>
	<clipPath id="SVGID_2_">
		<use xlink:href="#SVGID_1_"  overflow="visible"/>
	</clipPath>
	<path clip-path="url(#SVGID_2_)" fill="none" stroke="#AE3628" stroke-width="4" stroke-miterlimit="10" d="M21.9,29.2L2.6,13.8
		v30.8c0,2.2,1.3,16.9,19.9,16.9C41,61.5,41,47.2,41,44.3V13.8L2.3,44.1"/>
	<path clip-path="url(#SVGID_2_)" fill="none" stroke="#AE3628" stroke-width="4" stroke-miterlimit="10" d="M90.8,29.2L71.4,13.8
		v30.8c0,2.2,1.3,16.9,19.9,16.9c18.5,0,18.5-14.3,18.5-17.2V13.8L71.2,44.1"/>
	<path clip-path="url(#SVGID_2_)" fill="none" stroke="#AE3628" stroke-width="4" stroke-miterlimit="10" d="M159.5,29.2l-19.3-15.4
		v30.8c0,2.2,1.3,16.9,19.9,16.9c18.5,0,18.5-14.3,18.5-17.2V13.8l-38.7,30.3"/>
	
		<line clip-path="url(#SVGID_2_)" fill="none" stroke="#AE3628" stroke-width="4" stroke-miterlimit="10" x1="21.8" y1="99.8" x2="21.8" y2="61.2"/>
	
		<line clip-path="url(#SVGID_2_)" fill="none" stroke="#AE3628" stroke-width="4" stroke-miterlimit="10" x1="90.6" y1="99.8" x2="90.6" y2="61.2"/>
	
		<line clip-path="url(#SVGID_2_)" fill="none" stroke="#AE3628" stroke-width="4" stroke-miterlimit="10" x1="159.4" y1="99.8" x2="159.4" y2="61.2"/>
	<path clip-path="url(#SVGID_2_)" fill="none" stroke="#AE3628" stroke-width="4" stroke-miterlimit="10" d="M0,73.8
		c20,3.7,20.8,25.3,20.8,25.3S-1.3,101.4,0,73.8z"/>
	<path clip-path="url(#SVGID_2_)" fill="none" stroke="#AE3628" stroke-width="4" stroke-miterlimit="10" d="M68.9,73.8
		c20,3.7,20.8,25.3,20.8,25.3S67.5,101.4,68.9,73.8z"/>
	<path clip-path="url(#SVGID_2_)" fill="none" stroke="#AE3628" stroke-width="4" stroke-miterlimit="10" d="M137.6,73.8
		c20,3.7,20.8,25.3,20.8,25.3S136.3,101.4,137.6,73.8z"/>
	<path clip-path="url(#SVGID_2_)" fill="none" stroke="#AE3628" stroke-width="4" stroke-miterlimit="10" d="M43.7,73.8
		c-20,3.7-20.8,25.3-20.8,25.3S45,101.4,43.7,73.8z"/>
	<path clip-path="url(#SVGID_2_)" fill="none" stroke="#AE3628" stroke-width="4" stroke-miterlimit="10" d="M112.6,73.8
		c-20,3.7-20.8,25.3-20.8,25.3S113.9,101.4,112.6,73.8z"/>
	<path clip-path="url(#SVGID_2_)" fill="none" stroke="#AE3628" stroke-width="4" stroke-miterlimit="10" d="M181.3,73.8
		c-20,3.7-20.8,25.3-20.8,25.3S182.6,101.4,181.3,73.8z"/>
	<polyline clip-path="url(#SVGID_2_)" fill="none" stroke="#AE3628" stroke-width="4" stroke-miterlimit="10" points="11.7,21.1 
		22.1,11.4 32,20.5 	"/>
	<polyline clip-path="url(#SVGID_2_)" fill="none" stroke="#AE3628" stroke-width="4" stroke-miterlimit="10" points="80.6,21.1 
		91,11.4 100.9,20.5 	"/>
	<polyline clip-path="url(#SVGID_2_)" fill="none" stroke="#AE3628" stroke-width="4" stroke-miterlimit="10" points="149.3,21.1 
		159.7,11.4 169.6,20.5 	"/>
</g>
</svg>
